tools/download-figma-icons/icons/solid/rfid-card.svg

<svg width="24" height="24" viewBox="0 0 24 24" fill="none" xmlns="http://www.w3.org/2000/svg">
<path fill-rule="evenodd" clip-rule="evenodd" d="M16.5209 10.13C16.2876 10.475 15.8226 10.565 15.4776 10.325C14.2709 9.50753 12.8084 9.20828 11.3759 9.48578C9.93591 9.75503 8.69766 10.5725 7.87342 11.7875C7.73092 11.9975 7.49092 12.1108 7.25092 12.1108C7.10842 12.1108 6.95842 12.0725 6.83092 11.9833C6.49342 11.75 6.40342 11.285 6.63517 10.94C7.67842 9.40253 9.26016 8.36079 11.0909 8.00754C12.9209 7.66254 14.7809 8.04579 16.3176 9.08753C16.6626 9.32003 16.7534 9.78503 16.5209 10.13ZM14.9684 12.4175C14.7359 12.7625 14.2709 12.8525 13.9259 12.62C13.3251 12.215 12.6059 12.065 11.8934 12.2C11.1884 12.335 10.5727 12.74 10.1609 13.34C10.0184 13.5508 9.78591 13.6708 9.54591 13.6708C9.39591 13.6708 9.25341 13.625 9.12591 13.535C8.78091 13.3025 8.69091 12.8375 8.92341 12.4925C9.55341 11.5625 10.5052 10.94 11.6159 10.7225C12.7184 10.5126 13.8359 10.745 14.7651 11.375C15.1109 11.6083 15.2001 12.0808 14.9684 12.4175ZM13.1684 15.4175C12.7251 15.8608 12.0209 15.8608 11.5776 15.4175C11.1351 14.9833 11.1351 14.2708 11.5776 13.8283C12.0209 13.3851 12.7251 13.3851 13.1684 13.8283C13.6109 14.2708 13.6109 14.9833 13.1684 15.4175ZM23.9683 15.635L21.7483 4.21259C21.5908 3.40259 20.7958 2.8701 19.9858 3.02759L1.21344 6.61333C0.822687 6.68758 0.477689 6.91258 0.25344 7.24257C0.0284414 7.57257 -0.0473083 7.97007 0.0284414 8.36082L2.24843 19.79C2.39018 20.5025 3.02093 20.9975 3.72517 20.9975C3.81592 20.9975 3.91267 20.99 4.01017 20.9675L22.7833 17.3908C23.1733 17.3075 23.5183 17.0833 23.7433 16.7525C23.9683 16.4233 24.0433 16.025 23.9683 15.635Z" fill="black"/>
</svg>

<svg xmlns="http://www.w3.org/2000/svg" width="24" height="24" fill="none" viewBox="0 0 24 24"><path fill="currentColor" fill-rule="evenodd" d="M16.52 10.13a.74.74 0 0 1-1.042.195 5.44 5.44 0 0 0-4.102-.84 5.4 5.4 0 0 0-3.503 2.303.75.75 0 0 1-.622.323.73.73 0 0 1-.42-.128.756.756 0 0 1-.196-1.043 6.94 6.94 0 0 1 4.456-2.932 6.97 6.97 0 0 1 5.227 1.08.75.75 0 0 1 .203 1.042m-1.552 2.287a.75.75 0 0 1-1.042.203 2.707 2.707 0 0 0-3.765.72.74.74 0 0 1-.615.33.7.7 0 0 1-.42-.135.75.75 0 0 1-.203-1.043 4.2 4.2 0 0 1 2.693-1.77 4.18 4.18 0 0 1 3.15.653.75.75 0 0 1 .202 1.043m-1.8 3a1.12 1.12 0 0 1-1.59 0 1.117 1.117 0 0 1 0-1.589 1.12 1.12 0 0 1 1.59 0 1.117 1.117 0 0 1 0 1.59m10.8.218-2.22-11.422a1.507 1.507 0 0 0-1.762-1.185L1.213 6.613c-.39.075-.735.3-.96.63s-.3.727-.225 1.118l2.22 11.429a1.51 1.51 0 0 0 1.477 1.207c.09 0 .188-.007.285-.03l18.773-3.576c.39-.083.735-.308.96-.638s.3-.728.225-1.118" clip-rule="evenodd"/></svg>
